src/images/enterprise-01.svg

<svg xmlns="http://www.w3.org/2000/svg" width="250" height="291" fill="none" viewBox="0 0 250 291"><path fill="#1D4AFF" fill-rule="evenodd" d="M20.5836 13.9108H229.965C231.884 13.9073 233.786 14.2834 235.56 15.0175C237.333 15.7494 238.944 16.8256 240.299 18.184C241.654 19.5423 242.726 21.1557 243.453 22.9308C244.188 24.6995 244.564 26.5965 244.56 28.5118V238.769C244.557 240.687 244.181 242.587 243.453 244.362C242.345 247.024 240.472 249.297 238.071 250.895C235.67 252.492 232.849 253.341 229.965 253.334H20.5836C18.6649 253.334 16.7651 252.956 14.9927 252.221C13.2204 251.487 11.6103 250.41 10.2547 249.053C8.89913 247.695 7.82453 246.084 7.09246 244.312C6.36038 242.539 5.98517 240.639 5.9883 238.721V28.5118C5.9883 24.6414 7.52564 20.9294 10.2624 18.1915C12.9992 15.4536 16.7116 13.9139 20.5836 13.9108Z" clip-rule="evenodd"/><path fill="#1D4AFF" fill-rule="evenodd" stroke="#fff" stroke-linecap="round" stroke-linejoin="round" d="M61.6073 198.191H111.369C117.203 198.191 126.536 209.424 126.536 215.981L121.917 258.201C121.917 264.77 117.155 270.101 111.381 270.101L63.5002 278.764C57.6549 278.764 51.0954 264.746 51.0954 258.213V210.067C51.0597 203.51 55.7859 198.191 61.6073 198.191Z" clip-rule="evenodd"/><path fill="#F96132" fill-rule="evenodd" stroke="#1D4AFF" stroke-linecap="round" stroke-linejoin="round" stroke-width="2" d="M67.0118 206.616H116.762C122.595 206.616 127.297 211.947 127.297 218.575V266.876C127.297 273.469 122.536 278.847 116.762 278.847H67.0118C61.1784 278.847 56.4761 273.504 56.4761 266.876V218.527C56.4999 211.923 61.1784 206.616 67.0118 206.616Z" clip-rule="evenodd"/><path fill="#1D4AFF" fill-rule="evenodd" stroke="#fff" stroke-linecap="round" stroke-linejoin="round" d="M72.4641 212.697H111.452C113.791 212.703 116.031 213.636 117.683 215.291C119.334 216.946 120.262 219.188 120.262 221.526V255.06C120.263 256.219 120.036 257.367 119.595 258.439C118.925 260.048 117.795 261.423 116.346 262.393C114.898 263.362 113.195 263.883 111.452 263.889H72.4641C70.1267 263.878 67.8871 262.951 66.226 261.307C65.4075 260.486 64.7601 259.512 64.3212 258.439C63.8708 257.37 63.64 256.22 63.6426 255.06V221.443C63.652 219.11 64.5857 216.877 66.239 215.231C67.8923 213.585 70.1307 212.661 72.4641 212.661V212.697Z" clip-rule="evenodd"/><path stroke="#F96132" stroke-linecap="round" stroke-linejoin="round" stroke-width="2" d="M70.0835 220.669L94.8335 220.788"/><path stroke="#F96132" stroke-linecap="round" stroke-linejoin="round" stroke-width="2" d="M69.7739 228.761L86.4406 229.189"/><path stroke="#F96132" stroke-linecap="round" stroke-linejoin="round" stroke-width="2" d="M69.5952 236.758L102.821 236.877"/><path stroke="#F96132" stroke-linecap="round" stroke-linejoin="round" stroke-width="2" d="M69.4761 245.599H78.1665"/><path stroke="#F96132" stroke-linecap="round" stroke-linejoin="round" stroke-width="2" d="M69.7021 253.572L94.7021 254.012"/><path fill="#1D4AFF" fill-rule="evenodd" stroke="#fff" stroke-linecap="round" stroke-linejoin="round" d="M149.464 199.916H199.226C205.072 199.916 214.393 211.149 214.393 217.766L209.75 259.986C209.75 266.543 204.988 271.886 199.226 271.886L151.334 280.573C145.5 280.573 138.941 266.555 138.941 260.022V211.78C138.905 205.223 143.607 199.916 149.464 199.916Z" clip-rule="evenodd"/><path fill="#F96132" fill-rule="evenodd" stroke="#1D4AFF" stroke-linecap="round" stroke-linejoin="round" stroke-width="2" d="M154.845 208.353H204.595C210.429 208.353 215.143 213.696 215.143 220.253V268.506C215.143 275.087 210.381 280.406 204.595 280.406H154.845C149.024 280.406 144.31 275.075 144.31 268.506V220.253C144.286 213.696 149.024 208.353 154.845 208.353Z" clip-rule="evenodd"/><path fill="#1D4AFF" fill-rule="evenodd" stroke="#fff" stroke-linecap="round" stroke-linejoin="round" stroke-width="2" d="M179.583 175.414H130.774V128.244H125.321V175.414H86.2021V204.164H91.6545V181.233H174.274V204.164H179.726V175.414H179.583Z" clip-rule="evenodd"/><path fill="#1D4AFF" fill-rule="evenodd" stroke="#fff" stroke-linecap="round" stroke-linejoin="round" d="M160.31 214.362H199.274C201.019 214.363 202.724 214.879 204.175 215.847C205.627 216.815 206.759 218.191 207.429 219.801C207.872 220.872 208.103 222.02 208.107 223.18V256.726C208.101 259.062 207.17 261.301 205.517 262.954C203.864 264.606 201.624 265.537 199.286 265.543H160.31C157.973 265.534 155.735 264.602 154.082 262.95C152.43 261.299 151.498 259.061 151.488 256.726V223.192C151.487 222.032 151.717 220.883 152.167 219.813C152.603 218.742 153.251 217.771 154.072 216.957C154.892 216.135 155.867 215.484 156.941 215.041C158.007 214.591 159.153 214.361 160.31 214.362V214.362Z" clip-rule="evenodd"/><path stroke="#F96132" stroke-linecap="round" stroke-linejoin="round" stroke-width="2" d="M157.917 222.383L182.667 222.502"/><path stroke="#F96132" stroke-linecap="round" stroke-linejoin="round" stroke-width="2" d="M157.607 230.475L174.274 230.903"/><path stroke="#F96132" stroke-linecap="round" stroke-linejoin="round" stroke-width="2" d="M157.44 238.471L190.655 238.59"/><path stroke="#F96132" stroke-linecap="round" stroke-linejoin="round" stroke-width="2" d="M157.345 247.301H166.024"/><path stroke="#F96132" stroke-linecap="round" stroke-linejoin="round" stroke-width="2" d="M157.536 255.25L182.536 255.678"/><path fill="#fff" d="M179.226 69.1853C175.272 58.8796 168.285 50.015 159.185 43.7618C150.086 37.5086 139.304 34.161 128.262 34.161C117.22 34.161 106.437 37.5086 97.3381 43.7618C88.239 50.015 81.2513 58.8796 77.2975 69.1853C69.2963 71.2564 62.3271 76.1766 57.6991 83.0216C53.0711 89.8666 51.1029 98.1653 52.1642 106.359C53.2255 114.552 57.2433 122.076 63.4628 127.517C69.6823 132.958 77.6753 135.941 85.9404 135.907H170.464C178.682 135.888 186.613 132.886 192.784 127.461C198.954 122.036 202.944 114.556 204.012 106.411C205.08 98.2661 203.154 90.0108 198.59 83.1792C194.027 76.3476 187.137 71.4045 179.202 69.2686L179.226 69.1853ZM185.417 116.784C183.451 118.745 181.117 120.298 178.549 121.353C175.981 122.409 173.229 122.947 170.452 122.937H85.9285C81.9835 122.962 78.1113 121.875 74.756 119.801C71.4006 117.727 68.698 114.749 66.9581 111.21C65.2183 107.671 64.5115 103.713 64.919 99.791C65.3264 95.8686 66.8316 92.1405 69.2618 89.0341C72.1216 85.4203 76.071 82.8247 80.5237 81.6325L86.9761 79.9427L89.357 73.7429C90.8324 69.8865 92.8834 66.2757 95.4403 63.0331C99.3476 58.0747 104.329 54.0667 110.01 51.311C115.691 48.5552 121.923 47.1235 128.238 47.1235C134.553 47.1235 140.785 48.5552 146.466 51.311C152.147 54.0667 157.128 58.0747 161.036 63.0331C163.588 66.2785 165.639 69.8887 167.119 73.7429L169.5 79.9308L175.928 81.6325C178.608 82.3348 181.122 83.5594 183.327 85.236C185.531 86.9126 187.382 89.0082 188.774 91.4022C190.166 93.7963 191.07 96.4417 191.436 99.1863C191.802 101.931 191.621 104.721 190.905 107.395C189.941 110.968 188.057 114.226 185.44 116.844L185.417 116.784Z"/></svg>

<svg fill="none" viewBox="0 0 250 291"><path fill="#1D4AFF" fill-rule="evenodd" d="M20.584 13.91h209.381a14.565 14.565 0 0110.334 4.274 14.505 14.505 0 013.154 4.747 14.464 14.464 0 011.107 5.58V238.77a14.802 14.802 0 01-1.107 5.593 14.576 14.576 0 01-13.488 8.972H20.584a14.595 14.595 0 01-14.596-14.613V28.511c0-3.87 1.538-7.582 4.274-10.32a14.61 14.61 0 0110.322-4.28z" clip-rule="evenodd"/><path fill="#1D4AFF" fill-rule="evenodd" stroke="#fff" stroke-linecap="round" stroke-linejoin="round" d="M61.607 198.191h49.762c5.834 0 15.167 11.233 15.167 17.79l-4.619 42.22c0 6.569-4.762 11.9-10.536 11.9l-47.88 8.663c-5.846 0-12.406-14.018-12.406-20.551v-48.146c-.035-6.557 4.69-11.876 10.512-11.876z" clip-rule="evenodd"/><path fill="#F96132" fill-rule="evenodd" stroke="#1D4AFF" stroke-linecap="round" stroke-linejoin="round" stroke-width="2" d="M67.012 206.616h49.75c5.833 0 10.535 5.331 10.535 11.959v48.301c0 6.593-4.761 11.971-10.535 11.971h-49.75c-5.834 0-10.536-5.343-10.536-11.971v-48.349c.024-6.604 4.702-11.911 10.536-11.911z" clip-rule="evenodd"/><path fill="#1D4AFF" fill-rule="evenodd" stroke="#fff" stroke-linecap="round" stroke-linejoin="round" d="M72.464 212.697h38.988a8.829 8.829 0 018.81 8.829v33.534a8.862 8.862 0 01-.667 3.379 8.854 8.854 0 01-8.143 5.45H72.464a8.927 8.927 0 01-6.238-2.582 8.757 8.757 0 01-1.905-2.868 8.656 8.656 0 01-.678-3.379v-33.617a8.823 8.823 0 018.822-8.782v.036z" clip-rule="evenodd"/><path stroke="#F96132" stroke-linecap="round" stroke-linejoin="round" stroke-width="2" d="M70.084 220.669l24.75.119m-25.06 7.973l16.667.428m-16.846 7.569l33.226.119m-33.345 8.722h8.69m-8.464 7.973l25 .44"/><path fill="#1D4AFF" fill-rule="evenodd" stroke="#fff" stroke-linecap="round" stroke-linejoin="round" d="M149.464 199.916h49.762c5.846 0 15.167 11.233 15.167 17.85l-4.643 42.22c0 6.557-4.762 11.9-10.524 11.9l-47.892 8.687c-5.834 0-12.393-14.018-12.393-20.551V211.78c-.036-6.557 4.666-11.864 10.523-11.864z" clip-rule="evenodd"/><path fill="#F96132" fill-rule="evenodd" stroke="#1D4AFF" stroke-linecap="round" stroke-linejoin="round" stroke-width="2" d="M154.845 208.353h49.75c5.834 0 10.548 5.343 10.548 11.9v48.253c0 6.581-4.762 11.9-10.548 11.9h-49.75c-5.821 0-10.535-5.331-10.535-11.9v-48.253c-.024-6.557 4.714-11.9 10.535-11.9z" clip-rule="evenodd"/><path fill="#1D4AFF" fill-rule="evenodd" stroke="#fff" stroke-linecap="round" stroke-linejoin="round" stroke-width="2" d="M179.583 175.414h-48.809v-47.17h-5.453v47.17H86.202v28.75h5.453v-22.931h82.619v22.931h5.452v-28.75h-.143z" clip-rule="evenodd"/><path fill="#1D4AFF" fill-rule="evenodd" stroke="#fff" stroke-linecap="round" stroke-linejoin="round" d="M160.31 214.362h38.964a8.839 8.839 0 018.155 5.439 8.923 8.923 0 01.678 3.379v33.546a8.84 8.84 0 01-8.821 8.817H160.31a8.858 8.858 0 01-8.822-8.817v-33.534a8.696 8.696 0 01.679-3.379 8.574 8.574 0 011.905-2.856 8.781 8.781 0 012.869-1.916 8.643 8.643 0 013.369-.679v0z" clip-rule="evenodd"/><path stroke="#F96132" stroke-linecap="round" stroke-linejoin="round" stroke-width="2" d="M157.917 222.383l24.75.119m-25.06 7.973l16.667.428m-16.834 7.568l33.215.119m-33.31 8.711h8.679m-8.488 7.949l25 .428"/><path fill="#fff" d="M179.226 69.185a54.56 54.56 0 00-20.041-25.423 54.597 54.597 0 00-61.847 0 54.564 54.564 0 00-20.04 25.423 33.916 33.916 0 00-19.599 13.837 33.892 33.892 0 005.764 44.495 33.926 33.926 0 0022.477 8.39h84.524a33.925 33.925 0 0022.32-8.446 33.898 33.898 0 0011.228-21.05 33.888 33.888 0 00-5.422-23.232 33.916 33.916 0 00-19.388-13.91l.024-.084zm6.191 47.599a21.091 21.091 0 01-14.965 6.153H85.929a20.996 20.996 0 01-18.97-11.727 20.971 20.971 0 012.303-22.176 21.43 21.43 0 0111.262-7.402l6.452-1.69 2.381-6.2a40.898 40.898 0 016.083-10.709 41.746 41.746 0 0132.798-15.91 41.763 41.763 0 0132.798 15.91 41.25 41.25 0 016.083 10.71l2.381 6.188 6.428 1.701a21.032 21.032 0 0112.846 9.77 21.01 21.01 0 012.131 15.993 21.162 21.162 0 01-5.465 9.449l-.023-.06z"/></svg>
